X:149
M:3/4
L:1/4
K:A
E | c2 A | (A G) A | B2 G | E2 E | (E F) G | A2 F | E2 D | C2 C | (E A) c | (B G) E | (A F) ^D | E2 E | A2 B | c2 A | G2 F | E2 A | G2 B | A2 c | B2 d | c2 E | (d c) B | (A G) F | E2 E | E2 !sintro!e | e2 c | d2 e | c2 E | (F d) B | A2 G | A2 !eintro!|]
